( Made using CamBam - http://www.cambam.co.uk )
( box 2/23/2025 2:43:40 PM )
( Post-pro: GRBL )
( T6 : 6.0 )
G21 G90 G40
G0 Z5.0
( T6 : 6.0 )
T6 M6
( Aussen )
G17
M3 S1000
G0 X51.0 Y0.0
G0 Z1.0
G1 F300.0 Z-2.0
G1 F600.0 Y83.0
G3X48.0Y86.0I-3.0J0.0
G1 X0.0
G3X-3.0Y83.0I0.0J-3.0
G1 Y0.0
G3X0.0Y-3.0I3.0J0.0
G1 X48.0
G3X51.0Y0.0I0.0J3.0
G1 F300.0 Z-4.0
G1 F600.0 Y83.0
G3X48.0Y86.0I-3.0J0.0
G1 X0.0
G3X-3.0Y83.0I0.0J-3.0
G1 Y0.0
G3X0.0Y-3.0I3.0J0.0
G1 X48.0
G3X51.0Y0.0I0.0J3.0
G1 F300.0 Z-6.0
G1 F600.0 Y83.0
G3X48.0Y86.0I-3.0J0.0
G1 X0.0
G3X-3.0Y83.0I0.0J-3.0
G1 Y0.0
G3X0.0Y-3.0I3.0J0.0
G1 X48.0
G3X51.0Y0.0I0.0J3.0
G1 F300.0 Z-8.0
G1 F600.0 Y83.0
G3X48.0Y86.0I-3.0J0.0
G1 X0.0
G3X-3.0Y83.0I0.0J-3.0
G1 Y0.0
G3X0.0Y-3.0I3.0J0.0
G1 X48.0
G3X51.0Y0.0I0.0J3.0
G1 F300.0 Z-10.0
G1 F600.0 Y83.0
G3X48.0Y86.0I-3.0J0.0
G1 X0.0
G3X-3.0Y83.0I0.0J-3.0
G1 Y0.0
G3X0.0Y-3.0I3.0J0.0
G1 X48.0
G3X51.0Y0.0I0.0J3.0
G1 F300.0 Z-12.0
G1 F600.0 Y83.0
G3X48.0Y86.0I-3.0J0.0
G1 X0.0
G3X-3.0Y83.0I0.0J-3.0
G1 Y0.0
G3X0.0Y-3.0I3.0J0.0
G1 X48.0
G3X51.0Y0.0I0.0J3.0
G1 F300.0 Z-14.0
G1 F600.0 Y83.0
G3X48.0Y86.0I-3.0J0.0
G1 X0.0
G3X-3.0Y83.0I0.0J-3.0
G1 Y0.0
G3X0.0Y-3.0I3.0J0.0
G1 X48.0
G3X51.0Y0.0I0.0J3.0
G1 F300.0 Z-16.0
G1 F600.0 Y83.0
G3X48.0Y86.0I-3.0J0.0
G1 X0.0
G3X-3.0Y83.0I0.0J-3.0
G1 Y0.0
G3X0.0Y-3.0I3.0J0.0
G1 X48.0
G3X51.0Y0.0I0.0J3.0
G1 F300.0 Z-18.0
G1 F600.0 Y83.0
G3X48.0Y86.0I-3.0J0.0
G1 X0.0
G3X-3.0Y83.0I0.0J-3.0
G1 Y0.0
G3X0.0Y-3.0I3.0J0.0
G1 X48.0
G3X51.0Y0.0I0.0J3.0
G1 F300.0 Z-20.0
G1 F600.0 Y83.0
G3X48.0Y86.0I-3.0J0.0
G1 X0.0
G3X-3.0Y83.0I0.0J-3.0
G1 Y0.0
G3X0.0Y-3.0I3.0J0.0
G1 X48.0
G3X51.0Y0.0I0.0J3.0
G1 F300.0 Z-20.5
G1 F600.0 Y83.0
G3X48.0Y86.0I-3.0J0.0
G1 X0.0
G3X-3.0Y83.0I0.0J-3.0
G1 Y0.0
G3X0.0Y-3.0I3.0J0.0
G1 X48.0
G3X51.0Y0.0I0.0J3.0
G0 Z5.0
M5
M30
