( Made using CamBam - http://www.cambam.co.uk )
( gehaeuse 2/9/2025 3:19:08 PM )
( Post-pro: GRBL )
( T3 : 4.0 )
G21 G90 G40
G0 Z3.0
( T3 : 4.0 )
T3 M6
( Tasche )
G17
M3 S1000
G0 X110.2 Y9.2
G0 Z1.0
G1 F100.0 Z-0.4
G1 F500.0 Y168.8
G1 X110.8
G1 Y9.2
G1 X110.2
G1 F100.0 Y7.6
G1 F500.0 X108.6
G1 Y170.4
G1 X112.4
G1 Y7.6
G1 X110.2
G1 F100.0 Y6.0
G1 F500.0 X107.0
G1 Y172.0
G1 X114.0
G1 Y6.0
G1 X110.2
G0 Z3.0
G0 Y9.2
G0 Z0.6
G1 F100.0 Z-0.8
G1 F500.0 Y168.8
G1 X110.8
G1 Y9.2
G1 X110.2
G1 F100.0 Y7.6
G1 F500.0 X108.6
G1 Y170.4
G1 X112.4
G1 Y7.6
G1 X110.2
G1 F100.0 Y6.0
G1 F500.0 X107.0
G1 Y172.0
G1 X114.0
G1 Y6.0
G1 X110.2
G0 Z3.0
G0 Y9.2
G0 Z0.2
G1 F100.0 Z-1.2
G1 F500.0 Y168.8
G1 X110.8
G1 Y9.2
G1 X110.2
G1 F100.0 Y7.6
G1 F500.0 X108.6
G1 Y170.4
G1 X112.4
G1 Y7.6
G1 X110.2
G1 F100.0 Y6.0
G1 F500.0 X107.0
G1 Y172.0
G1 X114.0
G1 Y6.0
G1 X110.2
( Tasche fein )
S1000
G0 Z3.0
G0 X6.0
G0 Z1.0
G1 F100.0 Z-1.8
G1 F500.0 Y172.0
G1 X114.0
G1 Y6.0
G1 X6.0
G0 Z3.0
M5
M30
