( Made using CamBam - http://www.cambam.co.uk )
( box 2/23/2025 2:45:04 PM )
( Post-pro: GRBL )
( T6 : 6.0 )
G21 G90 G40
G0 Z3.0
( T6 : 6.0 )
T6 M6
( Schlitz )
G17
M3 S1000
G0 X39.0 Y54.5
G0 Z1.0
G1 F300.0 Z-2.0
G1 F800.0 Y28.5
G0 Z3.0
G0 Y54.5
G0 Z-1.0
G1 F300.0 Z-4.0
G1 F800.0 Y28.5
G0 Z3.0
G0 Y54.5
G0 Z-3.0
G1 F300.0 Z-6.0
G1 F800.0 Y28.5
G0 Z3.0
G0 Y54.5
G0 Z-5.0
G1 F300.0 Z-8.0
G1 F800.0 Y28.5
G0 Z3.0
G0 Y54.5
G0 Z-7.0
G1 F300.0 Z-10.0
G1 F800.0 Y28.5
G0 Z3.0
G0 Y54.5
G0 Z-9.0
G1 F300.0 Z-12.0
G1 F800.0 Y28.5
G0 Z3.0
M5
M30
