( Made using CamBam - http://www.cambam.co.uk )
( box 2/23/2025 2:41:53 PM )
( Post-pro: GRBL )
( T6 : 6.0 )
G21 G90 G40
G0 Z5.0
( T6 : 6.0 )
T6 M6
( Tasche_innnen )
G17
M3 S1000
G0 X19.5 Y19.5
G0 Z1.0
G1 F300.0 Z-2.0
G1 F600.0 Y20.99
G3X27.5Y20.8I4.5J20.51
G1 Y19.5
G1 X19.5
G1 F300.0 Y17.1
G1 F600.0 X17.1
G1 Y24.23
G3X29.9Y23.87I6.9J17.27
G1 Y17.1
G1 X19.5
G1 F300.0 Y14.7
G1 F600.0 X14.7
G1 Y28.24
G3X15.9Y27.47I9.3J13.26
G3X32.3Y27.59I8.1J14.03
G1 Y14.7
G1 X19.5
G1 F300.0 Y12.3
G1 F600.0 X12.3
G1 Y34.19
G3X17.1Y29.55I11.7J7.31
G3X34.7Y32.79I6.9J11.95
G1 Y12.3
G1 X19.5
G0 Z5.0
G0 Y62.01
G0 Z1.0
G1 F300.0 Z-2.0
G1 F600.0 Y63.5
G1 X27.5
G1 Y62.2
G3X19.5Y62.01I-3.5J-20.7
G1 F300.0 X20.01 Y59.66
F600.0
G3X17.1Y58.77I3.99J-18.16
G1 Y65.9
G1 X29.9
G1 Y59.13
G3X20.01Y59.66I-5.9J-17.63
G1 F300.0 X20.53 Y57.32
F600.0
G3X15.9Y55.53I3.47J-15.82
G3X14.7Y54.76I8.1J-14.03
G1 Y68.3
G1 X32.3
G1 Y55.41
G3X20.53Y57.32I-8.3J-13.91
G1 F300.0 X21.04 Y54.97
F600.0
G3X17.1Y53.45I2.96J-13.47
G3X12.3Y48.81I6.9J-11.95
G1 Y70.7
G1 X34.7
G1 Y50.21
G3X21.04Y54.97I-10.7J-8.71
G1 F300.0 X21.56 Y52.63
F600.0
G3X18.3Y51.37I2.44J-11.13
G3Y31.63I5.7J-9.87
G3X35.4Y41.5I5.7J9.87
G3X21.56Y52.63I-11.4J0.0
G1 F300.0 X22.07 Y50.29
F600.0
G3X19.5Y49.29I1.93J-8.79
G3Y33.71I4.5J-7.79
G3X33.0Y41.5I4.5J7.79
G3X22.07Y50.29I-9.0J0.0
G0 Z5.0
G0 X9.9
G0 Z1.0
G1 F300.0 Z-2.0
G1 F600.0 Y73.1
G1 X37.1
G1 Y9.9
G1 X9.9
G1 Y50.29
G1 F300.0 X7.5
G1 F600.0 Y75.5
G1 X39.5
G1 Y7.5
G1 X7.5
G1 Y50.29
G0 Z5.0
G0 X19.5 Y62.01
G0 Z-1.0
G1 F300.0 Z-4.0
G1 F600.0 Y63.5
G1 X27.5
G1 Y62.2
G3X19.5Y62.01I-3.5J-20.7
G1 F300.0 X20.01 Y59.66
F600.0
G3X17.1Y58.77I3.99J-18.16
G1 Y65.9
G1 X29.9
G1 Y59.13
G3X20.01Y59.66I-5.9J-17.63
G1 F300.0 X20.53 Y57.32
F600.0
G3X15.9Y55.53I3.47J-15.82
G3X14.7Y54.76I8.1J-14.03
G1 Y68.3
G1 X32.3
G1 Y55.41
G3X20.53Y57.32I-8.3J-13.91
G1 F300.0 X21.04 Y54.97
F600.0
G3X17.1Y53.45I2.96J-13.47
G3X12.3Y48.81I6.9J-11.95
G1 Y70.7
G1 X34.7
G1 Y50.21
G3X21.04Y54.97I-10.7J-8.71
G0 Z5.0
G0 X19.5 Y20.99
G0 Z-1.0
G1 F300.0 Z-4.0
F600.0
G3X27.5Y20.8I4.5J20.51
G1 Y19.5
G1 X19.5
G1 Y20.99
G1 F300.0 X20.01 Y23.34
F600.0
G3X29.9Y23.87I3.99J18.16
G1 Y17.1
G1 X17.1
G1 Y24.23
G3X20.01Y23.34I6.9J17.27
G1 F300.0 X20.53 Y25.68
F600.0
G3X32.3Y27.59I3.47J15.82
G1 Y14.7
G1 X14.7
G1 Y28.24
G3X15.9Y27.47I9.3J13.26
G3X20.53Y25.68I8.1J14.03
G1 F300.0 X21.04 Y28.03
F600.0
G3X34.7Y32.79I2.96J13.47
G1 Y12.3
G1 X12.3
G1 Y34.19
G3X17.1Y29.55I11.7J7.31
G3X21.04Y28.03I6.9J11.95
G1 F300.0 X21.56 Y30.37
F600.0
G3X35.4Y41.5I2.44J11.13
G3X18.3Y51.37I-11.4J0.0
G3Y31.63I5.7J-9.87
G3X21.56Y30.37I5.7J9.87
G1 F300.0 X22.07 Y32.71
F600.0
G3X33.0Y41.5I1.93J8.79
G3X19.5Y49.29I-9.0J0.0
G3Y33.71I4.5J-7.79
G3X22.07Y32.71I4.5J7.79
G0 Z5.0
G0 X9.9
G0 Z-1.0
G1 F300.0 Z-4.0
G1 F600.0 Y73.1
G1 X37.1
G1 Y9.9
G1 X9.9
G1 Y32.71
G1 F300.0 X7.5
G1 F600.0 Y75.5
G1 X39.5
G1 Y7.5
G1 X7.5
G1 Y32.71
G0 Z5.0
G0 X19.5 Y20.99
G0 Z-3.0
G1 F300.0 Z-6.0
F600.0
G3X27.5Y20.8I4.5J20.51
G1 Y19.5
G1 X19.5
G1 Y20.99
G1 F300.0 X20.01 Y23.34
F600.0
G3X29.9Y23.87I3.99J18.16
G1 Y17.1
G1 X17.1
G1 Y24.23
G3X20.01Y23.34I6.9J17.27
G1 F300.0 X20.53 Y25.68
F600.0
G3X32.3Y27.59I3.47J15.82
G1 Y14.7
G1 X14.7
G1 Y28.24
G3X15.9Y27.47I9.3J13.26
G3X20.53Y25.68I8.1J14.03
G1 F300.0 X21.04 Y28.03
F600.0
G3X34.7Y32.79I2.96J13.47
G1 Y12.3
G1 X12.3
G1 Y34.19
G3X17.1Y29.55I11.7J7.31
G3X21.04Y28.03I6.9J11.95
G0 Z5.0
G0 X19.5 Y62.01
G0 Z-3.0
G1 F300.0 Z-6.0
G1 F600.0 Y63.5
G1 X27.5
G1 Y62.2
G3X19.5Y62.01I-3.5J-20.7
G1 F300.0 X20.01 Y59.66
F600.0
G3X17.1Y58.77I3.99J-18.16
G1 Y65.9
G1 X29.9
G1 Y59.13
G3X20.01Y59.66I-5.9J-17.63
G1 F300.0 X20.53 Y57.32
F600.0
G3X15.9Y55.53I3.47J-15.82
G3X14.7Y54.76I8.1J-14.03
G1 Y68.3
G1 X32.3
G1 Y55.41
G3X20.53Y57.32I-8.3J-13.91
G1 F300.0 X21.04 Y54.97
F600.0
G3X17.1Y53.45I2.96J-13.47
G3X12.3Y48.81I6.9J-11.95
G1 Y70.7
G1 X34.7
G1 Y50.21
G3X21.04Y54.97I-10.7J-8.71
G1 F300.0 X21.56 Y52.63
F600.0
G3X18.3Y51.37I2.44J-11.13
G3Y31.63I5.7J-9.87
G3X35.4Y41.5I5.7J9.87
G3X21.56Y52.63I-11.4J0.0
G1 F300.0 X22.07 Y50.29
F600.0
G3X19.5Y49.29I1.93J-8.79
G3Y33.71I4.5J-7.79
G3X33.0Y41.5I4.5J7.79
G3X22.07Y50.29I-9.0J0.0
G0 Z5.0
G0 X9.9
G0 Z-3.0
G1 F300.0 Z-6.0
G1 F600.0 Y73.1
G1 X37.1
G1 Y9.9
G1 X9.9
G1 Y50.29
G1 F300.0 X7.5
G1 F600.0 Y75.5
G1 X39.5
G1 Y7.5
G1 X7.5
G1 Y50.29
G0 Z5.0
G0 X19.5 Y62.01
G0 Z-5.0
G1 F300.0 Z-8.0
G1 F600.0 Y63.5
G1 X27.5
G1 Y62.2
G3X19.5Y62.01I-3.5J-20.7
G1 F300.0 X20.01 Y59.66
F600.0
G3X17.1Y58.77I3.99J-18.16
G1 Y65.9
G1 X29.9
G1 Y59.13
G3X20.01Y59.66I-5.9J-17.63
G1 F300.0 X20.53 Y57.32
F600.0
G3X15.9Y55.53I3.47J-15.82
G3X14.7Y54.76I8.1J-14.03
G1 Y68.3
G1 X32.3
G1 Y55.41
G3X20.53Y57.32I-8.3J-13.91
G1 F300.0 X21.04 Y54.97
F600.0
G3X17.1Y53.45I2.96J-13.47
G3X12.3Y48.81I6.9J-11.95
G1 Y70.7
G1 X34.7
G1 Y50.21
G3X21.04Y54.97I-10.7J-8.71
G0 Z5.0
G0 X19.5 Y20.99
G0 Z-5.0
G1 F300.0 Z-8.0
F600.0
G3X27.5Y20.8I4.5J20.51
G1 Y19.5
G1 X19.5
G1 Y20.99
G1 F300.0 X20.01 Y23.34
F600.0
G3X29.9Y23.87I3.99J18.16
G1 Y17.1
G1 X17.1
G1 Y24.23
G3X20.01Y23.34I6.9J17.27
G1 F300.0 X20.53 Y25.68
F600.0
G3X32.3Y27.59I3.47J15.82
G1 Y14.7
G1 X14.7
G1 Y28.24
G3X15.9Y27.47I9.3J13.26
G3X20.53Y25.68I8.1J14.03
G1 F300.0 X21.04 Y28.03
F600.0
G3X34.7Y32.79I2.96J13.47
G1 Y12.3
G1 X12.3
G1 Y34.19
G3X17.1Y29.55I11.7J7.31
G3X21.04Y28.03I6.9J11.95
G1 F300.0 X21.56 Y30.37
F600.0
G3X35.4Y41.5I2.44J11.13
G3X18.3Y51.37I-11.4J0.0
G3Y31.63I5.7J-9.87
G3X21.56Y30.37I5.7J9.87
G1 F300.0 X22.07 Y32.71
F600.0
G3X33.0Y41.5I1.93J8.79
G3X19.5Y49.29I-9.0J0.0
G3Y33.71I4.5J-7.79
G3X22.07Y32.71I4.5J7.79
G0 Z5.0
G0 X9.9
G0 Z-5.0
G1 F300.0 Z-8.0
G1 F600.0 Y73.1
G1 X37.1
G1 Y9.9
G1 X9.9
G1 Y32.71
G1 F300.0 X7.5
G1 F600.0 Y75.5
G1 X39.5
G1 Y7.5
G1 X7.5
G1 Y32.71
G0 Z5.0
G0 X19.5 Y20.99
G0 Z-7.0
G1 F300.0 Z-10.0
F600.0
G3X27.5Y20.8I4.5J20.51
G1 Y19.5
G1 X19.5
G1 Y20.99
G1 F300.0 X20.01 Y23.34
F600.0
G3X29.9Y23.87I3.99J18.16
G1 Y17.1
G1 X17.1
G1 Y24.23
G3X20.01Y23.34I6.9J17.27
G1 F300.0 X20.53 Y25.68
F600.0
G3X32.3Y27.59I3.47J15.82
G1 Y14.7
G1 X14.7
G1 Y28.24
G3X15.9Y27.47I9.3J13.26
G3X20.53Y25.68I8.1J14.03
G1 F300.0 X21.04 Y28.03
F600.0
G3X34.7Y32.79I2.96J13.47
G1 Y12.3
G1 X12.3
G1 Y34.19
G3X17.1Y29.55I11.7J7.31
G3X21.04Y28.03I6.9J11.95
G0 Z5.0
G0 X19.5 Y62.01
G0 Z-7.0
G1 F300.0 Z-10.0
G1 F600.0 Y63.5
G1 X27.5
G1 Y62.2
G3X19.5Y62.01I-3.5J-20.7
G1 F300.0 X20.01 Y59.66
F600.0
G3X17.1Y58.77I3.99J-18.16
G1 Y65.9
G1 X29.9
G1 Y59.13
G3X20.01Y59.66I-5.9J-17.63
G1 F300.0 X20.53 Y57.32
F600.0
G3X15.9Y55.53I3.47J-15.82
G3X14.7Y54.76I8.1J-14.03
G1 Y68.3
G1 X32.3
G1 Y55.41
G3X20.53Y57.32I-8.3J-13.91
G1 F300.0 X21.04 Y54.97
F600.0
G3X17.1Y53.45I2.96J-13.47
G3X12.3Y48.81I6.9J-11.95
G1 Y70.7
G1 X34.7
G1 Y50.21
G3X21.04Y54.97I-10.7J-8.71
G1 F300.0 X21.56 Y52.63
F600.0
G3X18.3Y51.37I2.44J-11.13
G3Y31.63I5.7J-9.87
G3X35.4Y41.5I5.7J9.87
G3X21.56Y52.63I-11.4J0.0
G1 F300.0 X22.07 Y50.29
F600.0
G3X19.5Y49.29I1.93J-8.79
G3Y33.71I4.5J-7.79
G3X33.0Y41.5I4.5J7.79
G3X22.07Y50.29I-9.0J0.0
G0 Z5.0
G0 X9.9
G0 Z-7.0
G1 F300.0 Z-10.0
G1 F600.0 Y73.1
G1 X37.1
G1 Y9.9
G1 X9.9
G1 Y50.29
G1 F300.0 X7.5
G1 F600.0 Y75.5
G1 X39.5
G1 Y7.5
G1 X7.5
G1 Y50.29
G0 Z5.0
M5
M30
