( Made using CamBam - http://www.cambam.co.uk )
( box 2/23/2025 2:42:47 PM )
( Post-pro: GRBL )
( T6 : 6.0 )
G21 G90 G40
G0 Z3.0
( T6 : 6.0 )
T6 M6
( Tasche oben )
G17
M3 S1000
G0 X7.5 Y7.5
G0 Z1.0
G1 F300.0 Z-2.0
G1 F600.0 Y75.5
G1 X39.5
G1 Y7.5
G1 X7.5
G1 F300.0 Z-4.0
G1 F600.0 Y75.5
G1 X39.5
G1 Y7.5
G1 X7.5
G1 F300.0 Z-6.0
G1 F600.0 Y75.5
G1 X39.5
G1 Y7.5
G1 X7.5
G1 F300.0 Z-8.0
G1 F600.0 Y75.5
G1 X39.5
G1 Y7.5
G1 X7.5
G1 F300.0 Z-10.0
G1 F600.0 Y75.5
G1 X39.5
G1 Y7.5
G1 X7.5
G1 F300.0 Z-12.0
G1 F600.0 Y75.5
G1 X39.5
G1 Y7.5
G1 X7.5
G1 F300.0 Z-14.0
G1 F600.0 Y75.5
G1 X39.5
G1 Y7.5
G1 X7.5
G1 F300.0 Z-16.0
G1 F600.0 Y75.5
G1 X39.5
G1 Y7.5
G1 X7.5
G1 F300.0 Z-18.0
G1 F600.0 Y75.5
G1 X39.5
G1 Y7.5
G1 X7.5
G1 F300.0 Z-20.0
G1 F600.0 Y75.5
G1 X39.5
G1 Y7.5
G1 X7.5
G1 F300.0 Z-20.5
G1 F600.0 Y75.5
G1 X39.5
G1 Y7.5
G1 X7.5
G0 Z3.0
M5
M30
