( Made using CamBam - http://www.cambam.co.uk )
( box 2/23/2025 2:44:28 PM )
( Post-pro: GRBL )
( T6 : 6.0 )
G21 G90 G40
G0 Z3.0
( T6 : 6.0 )
T6 M6
( Vertiefung_vorne )
G17
M3 S1000
G0 X20.0 Y20.0
G0 Z1.0
G1 F300.0 Z-2.0
G1 F800.0 Y63.0
G1 X22.0
G1 Y20.0
G1 X20.0
G1 F300.0 X18.8
G1 F800.0 Y64.2
G1 X23.2
G1 Y18.8
G1 X18.8
G1 Y20.0
G1 F300.0 X16.4
G1 F800.0 Y66.6
G1 X25.6
G1 Y16.4
G1 X16.4
G1 Y20.0
G1 F300.0 X14.0
G1 F800.0 Y69.0
G1 X28.0
G1 Y14.0
G1 X14.0
G1 Y20.0
G1 F300.0 X11.6
G1 F800.0 Y71.4
G1 X30.4
G1 Y11.6
G1 X11.6
G1 Y20.0
G1 F300.0 X9.2
G1 F800.0 Y73.8
G1 X32.8
G1 Y9.2
G1 X9.2
G1 Y20.0
G1 F300.0 X6.8
G1 F800.0 Y76.2
G1 X35.2
G1 Y6.8
G1 X6.8
G1 Y20.0
G1 F300.0 X4.4
G1 F800.0 Y78.6
G1 X37.6
G1 Y4.4
G1 X4.4
G1 Y20.0
G1 F300.0 X2.0
G1 F800.0 Y81.0
G1 X40.0
G1 Y2.0
G1 X2.0
G1 Y20.0
G0 Z3.0
G0 X20.0
G0 Z-1.0
G1 F300.0 Z-4.0
G1 F800.0 Y63.0
G1 X22.0
G1 Y20.0
G1 X20.0
G1 F300.0 X18.8
G1 F800.0 Y64.2
G1 X23.2
G1 Y18.8
G1 X18.8
G1 Y20.0
G1 F300.0 X16.4
G1 F800.0 Y66.6
G1 X25.6
G1 Y16.4
G1 X16.4
G1 Y20.0
G1 F300.0 X14.0
G1 F800.0 Y69.0
G1 X28.0
G1 Y14.0
G1 X14.0
G1 Y20.0
G1 F300.0 X11.6
G1 F800.0 Y71.4
G1 X30.4
G1 Y11.6
G1 X11.6
G1 Y20.0
G1 F300.0 X9.2
G1 F800.0 Y73.8
G1 X32.8
G1 Y9.2
G1 X9.2
G1 Y20.0
G1 F300.0 X6.8
G1 F800.0 Y76.2
G1 X35.2
G1 Y6.8
G1 X6.8
G1 Y20.0
G1 F300.0 X4.4
G1 F800.0 Y78.6
G1 X37.6
G1 Y4.4
G1 X4.4
G1 Y20.0
G1 F300.0 X2.0
G1 F800.0 Y81.0
G1 X40.0
G1 Y2.0
G1 X2.0
G1 Y20.0
G0 Z3.0
G0 X20.0
G0 Z-3.0
G1 F300.0 Z-5.0
G1 F800.0 Y63.0
G1 X22.0
G1 Y20.0
G1 X20.0
G1 F300.0 X18.8
G1 F800.0 Y64.2
G1 X23.2
G1 Y18.8
G1 X18.8
G1 Y20.0
G1 F300.0 X16.4
G1 F800.0 Y66.6
G1 X25.6
G1 Y16.4
G1 X16.4
G1 Y20.0
G1 F300.0 X14.0
G1 F800.0 Y69.0
G1 X28.0
G1 Y14.0
G1 X14.0
G1 Y20.0
G1 F300.0 X11.6
G1 F800.0 Y71.4
G1 X30.4
G1 Y11.6
G1 X11.6
G1 Y20.0
G1 F300.0 X9.2
G1 F800.0 Y73.8
G1 X32.8
G1 Y9.2
G1 X9.2
G1 Y20.0
G1 F300.0 X6.8
G1 F800.0 Y76.2
G1 X35.2
G1 Y6.8
G1 X6.8
G1 Y20.0
G1 F300.0 X4.4
G1 F800.0 Y78.6
G1 X37.6
G1 Y4.4
G1 X4.4
G1 Y20.0
G1 F300.0 X2.0
G1 F800.0 Y81.0
G1 X40.0
G1 Y2.0
G1 X2.0
G1 Y20.0
G0 Z3.0
M5
M30
