( Made using CamBam - http://www.cambam.co.uk )
( box 2/16/2025 7:34:06 PM )
( Post-pro: GRBL )
( T6 : 6.0 )
G21 G90 G40
G0 Z3.0
( T6 : 6.0 )
T6 M6
( Aussen )
G17
M3 S1000
G0 X43.0 Y0.0
G0 Z1.0
G1 F300.0 Z-3.0
G1 F800.0 Y75.0
G3X40.0Y78.0I-3.0J0.0
G1 X0.0
G3X-3.0Y75.0I0.0J-3.0
G1 Y0.0
G3X0.0Y-3.0I3.0J0.0
G1 X40.0
G3X43.0Y0.0I0.0J3.0
G1 F300.0 Z-6.0
G1 F800.0 Y75.0
G3X40.0Y78.0I-3.0J0.0
G1 X0.0
G3X-3.0Y75.0I0.0J-3.0
G1 Y0.0
G3X0.0Y-3.0I3.0J0.0
G1 X40.0
G3X43.0Y0.0I0.0J3.0
G1 F300.0 Z-9.0
G1 F800.0 Y75.0
G3X40.0Y78.0I-3.0J0.0
G1 X0.0
G3X-3.0Y75.0I0.0J-3.0
G1 Y0.0
G3X0.0Y-3.0I3.0J0.0
G1 X40.0
G3X43.0Y0.0I0.0J3.0
G1 F300.0 Z-12.0
G1 F800.0 Y75.0
G3X40.0Y78.0I-3.0J0.0
G1 X0.0
G3X-3.0Y75.0I0.0J-3.0
G1 Y0.0
G3X0.0Y-3.0I3.0J0.0
G1 X40.0
G3X43.0Y0.0I0.0J3.0
G1 F300.0 Z-15.0
G1 F800.0 Y75.0
G3X40.0Y78.0I-3.0J0.0
G1 X0.0
G3X-3.0Y75.0I0.0J-3.0
G1 Y0.0
G3X0.0Y-3.0I3.0J0.0
G1 X40.0
G3X43.0Y0.0I0.0J3.0
G1 F300.0 Z-18.0
G1 F800.0 Y75.0
G3X40.0Y78.0I-3.0J0.0
G1 X0.0
G3X-3.0Y75.0I0.0J-3.0
G1 Y0.0
G3X0.0Y-3.0I3.0J0.0
G1 X40.0
G3X43.0Y0.0I0.0J3.0
G1 F300.0 Z-20.5
G1 F800.0 Y75.0
G3X40.0Y78.0I-3.0J0.0
G1 X0.0
G3X-3.0Y75.0I0.0J-3.0
G1 Y0.0
G3X0.0Y-3.0I3.0J0.0
G1 X40.0
G3X43.0Y0.0I0.0J3.0
G0 Z3.0
M5
M30
