( Made using CamBam - http://www.cambam.co.uk )
( box 2/16/2025 7:58:18 PM )
( Post-pro: GRBL )
( T6 : 6.0 )
G21 G90 G40
G0 Z3.0
( T6 : 6.0 )
T6 M6
( Tasche_innnen )
G17
M3 S1000
G0 X18.3 Y18.3
G0 Z1.0
G1 F300.0 Z-2.0
G1 F800.0 Y26.3
G3X20.7Y26.03I3.4J19.5
G1 Y18.3
G1 X18.3
G1 F300.0 Y17.1
G1 F800.0 X17.1
G1 Y27.78
G3X21.9Y27.21I4.6J18.02
G1 Y17.1
G1 X18.3
G1 F300.0 Y14.7
G1 F800.0 X14.7
G1 Y31.2
G3X24.3Y29.81I7.0J14.6
G1 Y14.7
G1 X18.3
G1 F300.0 Y12.3
G1 F800.0 X12.3
G1 Y35.7
G3X14.8Y33.85I9.4J10.1
G3X26.7Y32.94I6.9J11.95
G1 Y12.3
G1 X18.3
G0 Z3.0
G0 X12.3 Y55.9
G0 Z1.0
G1 F300.0 Z-2.0
G1 F800.0 Y62.7
G1 X26.7
G1 Y58.66
G3X14.8Y57.75I-5.0J-12.86
G3X12.3Y55.9I6.9J-11.95
G1 F300.0 X9.9
G1 F800.0 Y65.1
G1 X29.1
G1 Y54.47
G3X16.0Y55.67I-7.4J-8.67
G3Y35.93I5.7J-9.87
G3X29.1Y37.13I5.7J9.87
G1 Y9.9
G1 X9.9
G1 Y55.9
G1 F300.0 X7.5
G1 F800.0 Y67.5
G1 X31.5
G1 Y7.5
G1 X7.5
G1 Y55.9
G0 Z3.0
G0 X14.37 Y51.02
G0 Z1.0
G1 F300.0 Z-2.0
F800.0
G3X17.2Y38.01I7.33J-5.22
G3X30.7Y45.8I4.5J7.79
G3X17.2Y53.59I-9.0J0.0
G3X14.37Y51.02I4.5J-7.79
G1 F300.0 Z-4.0
F800.0
G3X17.2Y38.01I7.33J-5.22
G3X30.7Y45.8I4.5J7.79
G3X17.2Y53.59I-9.0J0.0
G3X14.37Y51.02I4.5J-7.79
G0 Z3.0
G0 X12.3 Y55.9
G0 Z-1.0
G1 F300.0 Z-4.0
G1 F800.0 Y62.7
G1 X26.7
G1 Y58.66
G3X14.8Y57.75I-5.0J-12.86
G3X12.3Y55.9I6.9J-11.95
G0 Z3.0
G0 X18.3 Y26.3
G0 Z-1.0
G1 F300.0 Z-4.0
F800.0
G3X20.7Y26.03I3.4J19.5
G1 Y18.3
G1 X18.3
G1 Y26.3
G1 F300.0 X17.1
G1 F800.0 Y27.78
G3X21.9Y27.21I4.6J18.02
G1 Y17.1
G1 X17.1
G1 Y26.3
G1 F300.0 X14.7
G1 F800.0 Y31.2
G3X24.3Y29.81I7.0J14.6
G1 Y14.7
G1 X14.7
G1 Y26.3
G1 F300.0 X12.3
G1 F800.0 Y35.7
G3X14.8Y33.85I9.4J10.1
G3X26.7Y32.94I6.9J11.95
G1 Y12.3
G1 X12.3
G1 Y26.3
G1 F300.0 X9.9
G1 F800.0 Y65.1
G1 X29.1
G1 Y54.47
G3X16.0Y55.67I-7.4J-8.67
G3Y35.93I5.7J-9.87
G3X29.1Y37.13I5.7J9.87
G1 Y9.9
G1 X9.9
G1 Y26.3
G1 F300.0 X7.5
G1 F800.0 Y67.5
G1 X31.5
G1 Y7.5
G1 X7.5
G1 Y26.3
G0 Z3.0
G0 X18.3
G0 Z-3.0
G1 F300.0 Z-6.0
F800.0
G3X20.7Y26.03I3.4J19.5
G1 Y18.3
G1 X18.3
G1 Y26.3
G1 F300.0 X17.1
G1 F800.0 Y27.78
G3X21.9Y27.21I4.6J18.02
G1 Y17.1
G1 X17.1
G1 Y26.3
G1 F300.0 X14.7
G1 F800.0 Y31.2
G3X24.3Y29.81I7.0J14.6
G1 Y14.7
G1 X14.7
G1 Y26.3
G1 F300.0 X12.3
G1 F800.0 Y35.7
G3X14.8Y33.85I9.4J10.1
G3X26.7Y32.94I6.9J11.95
G1 Y12.3
G1 X12.3
G1 Y26.3
G0 Z3.0
G0 Y55.9
G0 Z-3.0
G1 F300.0 Z-6.0
G1 F800.0 Y62.7
G1 X26.7
G1 Y58.66
G3X14.8Y57.75I-5.0J-12.86
G3X12.3Y55.9I6.9J-11.95
G1 F300.0 X9.9
G1 F800.0 Y65.1
G1 X29.1
G1 Y54.47
G3X16.0Y55.67I-7.4J-8.67
G3Y35.93I5.7J-9.87
G3X29.1Y37.13I5.7J9.87
G1 Y9.9
G1 X9.9
G1 Y55.9
G1 F300.0 X7.5
G1 F800.0 Y67.5
G1 X31.5
G1 Y7.5
G1 X7.5
G1 Y55.9
G0 Z3.0
G0 X14.37 Y51.02
G0 Z-3.0
G1 F300.0 Z-6.0
F800.0
G3X17.2Y38.01I7.33J-5.22
G3X30.7Y45.8I4.5J7.79
G3X17.2Y53.59I-9.0J0.0
G3X14.37Y51.02I4.5J-7.79
G1 F300.0 Z-8.0
F800.0
G3X17.2Y38.01I7.33J-5.22
G3X30.7Y45.8I4.5J7.79
G3X17.2Y53.59I-9.0J0.0
G3X14.37Y51.02I4.5J-7.79
G0 Z3.0
G0 X12.3 Y55.9
G0 Z-5.0
G1 F300.0 Z-8.0
G1 F800.0 Y62.7
G1 X26.7
G1 Y58.66
G3X14.8Y57.75I-5.0J-12.86
G3X12.3Y55.9I6.9J-11.95
G0 Z3.0
G0 X18.3 Y26.3
G0 Z-5.0
G1 F300.0 Z-8.0
F800.0
G3X20.7Y26.03I3.4J19.5
G1 Y18.3
G1 X18.3
G1 Y26.3
G1 F300.0 X17.1
G1 F800.0 Y27.78
G3X21.9Y27.21I4.6J18.02
G1 Y17.1
G1 X17.1
G1 Y26.3
G1 F300.0 X14.7
G1 F800.0 Y31.2
G3X24.3Y29.81I7.0J14.6
G1 Y14.7
G1 X14.7
G1 Y26.3
G1 F300.0 X12.3
G1 F800.0 Y35.7
G3X14.8Y33.85I9.4J10.1
G3X26.7Y32.94I6.9J11.95
G1 Y12.3
G1 X12.3
G1 Y26.3
G1 F300.0 X9.9
G1 F800.0 Y65.1
G1 X29.1
G1 Y54.47
G3X16.0Y55.67I-7.4J-8.67
G3Y35.93I5.7J-9.87
G3X29.1Y37.13I5.7J9.87
G1 Y9.9
G1 X9.9
G1 Y26.3
G1 F300.0 X7.5
G1 F800.0 Y67.5
G1 X31.5
G1 Y7.5
G1 X7.5
G1 Y26.3
G0 Z3.0
G0 X18.3
G0 Z-7.0
G1 F300.0 Z-10.0
F800.0
G3X20.7Y26.03I3.4J19.5
G1 Y18.3
G1 X18.3
G1 Y26.3
G1 F300.0 X17.1
G1 F800.0 Y27.78
G3X21.9Y27.21I4.6J18.02
G1 Y17.1
G1 X17.1
G1 Y26.3
G1 F300.0 X14.7
G1 F800.0 Y31.2
G3X24.3Y29.81I7.0J14.6
G1 Y14.7
G1 X14.7
G1 Y26.3
G1 F300.0 X12.3
G1 F800.0 Y35.7
G3X14.8Y33.85I9.4J10.1
G3X26.7Y32.94I6.9J11.95
G1 Y12.3
G1 X12.3
G1 Y26.3
G0 Z3.0
G0 Y55.9
G0 Z-7.0
G1 F300.0 Z-10.0
G1 F800.0 Y62.7
G1 X26.7
G1 Y58.66
G3X14.8Y57.75I-5.0J-12.86
G3X12.3Y55.9I6.9J-11.95
G1 F300.0 X9.9
G1 F800.0 Y65.1
G1 X29.1
G1 Y54.47
G3X16.0Y55.67I-7.4J-8.67
G3Y35.93I5.7J-9.87
G3X29.1Y37.13I5.7J9.87
G1 Y9.9
G1 X9.9
G1 Y55.9
G1 F300.0 X7.5
G1 F800.0 Y67.5
G1 X31.5
G1 Y7.5
G1 X7.5
G1 Y55.9
G0 Z3.0
G0 X14.37 Y51.02
G0 Z-7.0
G1 F300.0 Z-10.0
F800.0
G3X17.2Y38.01I7.33J-5.22
G3X30.7Y45.8I4.5J7.79
G3X17.2Y53.59I-9.0J0.0
G3X14.37Y51.02I4.5J-7.79
G0 Z3.0
M5
M30
